contributed-vectors/letterboxd.svg

<svg xmlns="http://www.w3.org/2000/svg" xml:space="preserve" style="fill-rule:evenodd;clip-rule:evenodd;stroke-linejoin:round;stroke-miterlimit:2" viewBox="0 0 192 192"><path d="M164.5 21.5c0-5.519-4.481-10-10-10h-133c-5.519 0-10 4.481-10 10v133c0 5.519 4.481 10 10 10h133c5.519 0 10-4.481 10-10v-133Z" style="fill:#56595b" transform="translate(8 8)"/><circle cx="55.745" cy="96" r="23.159" style="fill:#f8c18c" transform="translate(19.704 18.847) scale(.80368)"/><circle cx="55.745" cy="96" r="23.159" style="fill:#98dc9a" transform="translate(51.199 18.847) scale(.80368)"/><path d="M76.406 83.657A23.04 23.04 0 0 1 79.97 96a23.04 23.04 0 0 1-3.564 12.343A23.031 23.031 0 0 1 72.841 96c0-4.536 1.307-8.77 3.565-12.343Z" style="fill:#fff" transform="translate(18.847 18.847) scale(.80368)"/><circle cx="55.745" cy="96" r="23.159" style="fill:#9abeff" transform="translate(82.694 18.847) scale(.80368)"/><path d="M115.594 83.657A23.031 23.031 0 0 1 119.159 96c0 4.536-1.307 8.77-3.565 12.343A23.04 23.04 0 0 1 112.03 96a23.04 23.04 0 0 1 3.564-12.343Z" style="fill:#fff" transform="translate(18.847 18.847) scale(.80368)"/></svg>

<?xml version="1.0" encoding="UTF-8" standalone="no"?>
<!DOCTYPE svg PUBLIC "-//W3C//DTD SVG 1.1//EN" "http://www.w3.org/Graphics/SVG/1.1/DTD/svg11.dtd">
<svg width="100%" height="100%" viewBox="0 0 192 192" version="1.1" xmlns="http://www.w3.org/2000/svg" xmlns:xlink="http://www.w3.org/1999/xlink" xml:space="preserve" xmlns:serif="http://www.serif.com/" style="fill-rule:evenodd;clip-rule:evenodd;stroke-linejoin:round;stroke-miterlimit:2;">
    <g id="Layer1">
        <g transform="matrix(1,0,0,1,8,8)">
            <path d="M164.5,21.5C164.5,15.981 160.019,11.5 154.5,11.5L21.5,11.5C15.981,11.5 11.5,15.981 11.5,21.5L11.5,154.5C11.5,160.019 15.981,164.5 21.5,164.5L154.5,164.5C160.019,164.5 164.5,160.019 164.5,154.5L164.5,21.5Z" style="fill:rgb(86,89,91);"/>
        </g>
        <g transform="matrix(0.803682,0,0,0.803682,18.8466,18.8466)">
            <g transform="matrix(1,0,0,1,1.06667,0)">
                <circle cx="55.745" cy="96" r="23.159" style="fill:rgb(248,193,140);"/>
            </g>
            <g transform="matrix(1,0,0,1,40.2552,0)">
                <circle cx="55.745" cy="96" r="23.159" style="fill:rgb(152,220,154);"/>
            </g>
            <path d="M76.406,83.657C78.663,87.23 79.97,91.464 79.97,96C79.97,100.536 78.663,104.77 76.406,108.343C74.148,104.77 72.841,100.536 72.841,96C72.841,91.464 74.148,87.23 76.406,83.657Z" style="fill:white;"/>
            <g transform="matrix(1,0,0,1,79.4437,0)">
                <circle cx="55.745" cy="96" r="23.159" style="fill:rgb(154,190,255);"/>
            </g>
            <path d="M115.594,83.657C117.852,87.23 119.159,91.464 119.159,96C119.159,100.536 117.852,104.77 115.594,108.343C113.337,104.77 112.03,100.536 112.03,96C112.03,91.464 113.337,87.23 115.594,83.657Z" style="fill:white;"/>
        </g>
    </g>
</svg>
